X:648
T: ES SANGEN DREI ENGEL
N: E2031A
O: Europa, Mitteleuropa, Deutschland, Westfalen
R: geistlich, Wallfahrts - Lied
M: 3/4
L: 1/8
K: G
G2 | E3FGE | D2B,2
GG | E2F2G2 | A4
B2 | c2A2dd | G2G2
B2 | A2G2F2 | G4

